X: 31161
T: COTILLION No. 17. LADY GAY SPANKER'S SETT tune 1
C:
%R: jig
B: Elias Howe "The Musician's Companion" Part 3 1844 p.116 #1
S: http://imslp.org/wiki/The_Musician's_Companion_(Howe,_Elias)
Z: 2015 John Chambers <jc:trillian.mit.edu>
M: 6/8
L: 1/8
K: C
% - - - - - - - - - - - - - - - - - - - - - - - - - - - - -
G |\
ccc (c/d/e/f/g/e/) | fdd d2g | edc cBc | dBG GAB |\
ccc  c/d/e/f/g/e/  | fdd d2c | BAG GAB | ccc c2 H|]
g |\
c'2e' c'2e' | c'2e' g2g | f2e d2c | egg g2g |\
c'2e' c'2e' | c'2e' g2f | f2e d2c | egg g/a/g/f/e/"^D.C."d/ |]
E |\
A2A  .A.A.A  | A3 E3 | cBA cBA | Bee e2E |\
A2A (.A.A.A) | A3 F3 | cee E^F^G | AAA "^D.C."A2 |]
% - - - - - - - - - - Dance description - - - - - - - - - -
%%begintext align
%% First 2 right and left,
%% balance 2 and turn,
%% ladies chain,
%% promenade 2.
%% Sides the same.
%%endtext
% - - - - - - - - - - - - - - - - - - - - - - - - - - - - -
%%sep 1 1 300
